svg/fluentui-system-icons/ic_fluent_scale_fill_20_regular.svg

<svg width="20" height="20" viewBox="0 0 20 20" fill="none" xmlns="http://www.w3.org/2000/svg">
<path d="M6 6.5C6 6.43221 6.01349 6.36756 6.03794 6.30861C6.06198 6.25051 6.09744 6.19602 6.14433 6.14857L6.14857 6.14433C6.19602 6.09744 6.25051 6.06198 6.30861 6.03794C6.36756 6.01349 6.43221 6 6.5 6H8.5C8.77614 6 9 6.22386 9 6.5C9 6.77614 8.77614 7 8.5 7H7.70711L8.85355 8.14645C9.04882 8.34171 9.04882 8.65829 8.85355 8.85355C8.65829 9.04882 8.34171 9.04882 8.14645 8.85355L7 7.70711V8.5C7 8.77614 6.77614 9 6.5 9C6.22386 9 6 8.77614 6 8.5V6.5ZM6.03794 13.6914C6.01349 13.6324 6 13.5678 6 13.5V11.5C6 11.2239 6.22386 11 6.5 11C6.77614 11 7 11.2239 7 11.5V12.2929L8.14645 11.1464C8.34171 10.9512 8.65829 10.9512 8.85355 11.1464C9.04882 11.3417 9.04882 11.6583 8.85355 11.8536L7.70711 13H8.5C8.77614 13 9 13.2239 9 13.5C9 13.7761 8.77614 14 8.5 14H6.50049L6.497 14C6.37004 13.9992 6.24331 13.9504 6.14645 13.8536C6.09851 13.8056 6.06234 13.7504 6.03794 13.6914ZM13.6914 6.03794C13.7495 6.06198 13.804 6.09744 13.8514 6.14433L13.8557 6.14857C13.9026 6.19602 13.938 6.25051 13.9621 6.30861C13.9865 6.36756 14 6.43221 14 6.5V8.5C14 8.77614 13.7761 9 13.5 9C13.2239 9 13 8.77614 13 8.5V7.70711L11.8536 8.85355C11.6583 9.04882 11.3417 9.04882 11.1464 8.85355C10.9512 8.65829 10.9512 8.34171 11.1464 8.14645L12.2929 7H11.5C11.2239 7 11 6.77614 11 6.5C11 6.22386 11.2239 6 11.5 6H13.4999C13.5677 6 13.6324 6.01349 13.6914 6.03794ZM13.8514 13.8557C13.804 13.9026 13.7495 13.938 13.6914 13.9621C13.6324 13.9865 13.5678 14 13.5 14H11.5C11.2239 14 11 13.7761 11 13.5C11 13.2239 11.2239 13 11.5 13H12.2929L11.1464 11.8536C10.9512 11.6583 10.9512 11.3417 11.1464 11.1464C11.3417 10.9512 11.6583 10.9512 11.8536 11.1464L13 12.2929V11.5C13 11.2239 13.2239 11 13.5 11C13.7761 11 14 11.2239 14 11.5V13.5C14 13.5678 13.9865 13.6324 13.9621 13.6914C13.938 13.7495 13.9026 13.804 13.8557 13.8514L13.8514 13.8557ZM3 5C3 3.89543 3.89543 3 5 3H15C16.1046 3 17 3.89543 17 5V15C17 16.1046 16.1046 17 15 17H5C3.89543 17 3 16.1046 3 15V5ZM5 4C4.44772 4 4 4.44772 4 5V15C4 15.5523 4.44772 16 5 16H15C15.5523 16 16 15.5523 16 15V5C16 4.44772 15.5523 4 15 4H5Z" fill="#212121"/>
</svg>

<svg xmlns="http://www.w3.org/2000/svg" width="20" height="20"><path d="M6 6.5a.498.498 0 0 1 .144-.351l.005-.005A.498.498 0 0 1 6.5 6h2a.5.5 0 0 1 0 1h-.793l1.147 1.146a.5.5 0 1 1-.708.708L7 7.707V8.5a.5.5 0 0 1-1 0v-2Zm.038 7.191A.499.499 0 0 1 6 13.5v-2a.5.5 0 0 1 1 0v.793l1.146-1.147a.5.5 0 0 1 .708.708L7.707 13H8.5a.5.5 0 0 1 0 1H6.497a.499.499 0 0 1-.46-.309Zm7.653-7.653c.058.024.113.06.16.106l.005.005A.5.5 0 0 1 14 6.5v2a.5.5 0 0 1-1 0v-.793l-1.146 1.147a.5.5 0 0 1-.708-.708L12.293 7H11.5a.5.5 0 0 1 0-1h2a.5.5 0 0 1 .191.038Zm.16 7.818A.499.499 0 0 1 13.5 14h-2a.5.5 0 0 1 0-1h.793l-1.147-1.146a.5.5 0 0 1 .708-.708L13 12.293V11.5a.5.5 0 0 1 1 0v2a.5.5 0 0 1-.144.351l-.005.005ZM3 5a2 2 0 0 1 2-2h10a2 2 0 0 1 2 2v10a2 2 0 0 1-2 2H5a2 2 0 0 1-2-2V5Zm2-1a1 1 0 0 0-1 1v10a1 1 0 0 0 1 1h10a1 1 0 0 0 1-1V5a1 1 0 0 0-1-1H5Z"/></svg>
